modules/hawcons-filled/icons/icon-19-file-tiff.svg

<?xml version="1.0" encoding="UTF-8" standalone="no"?>
<svg width="32px" height="32px" viewBox="0 0 32 32" version="1.1" xmlns="http://www.w3.org/2000/svg" xmlns:xlink="http://www.w3.org/1999/xlink" xmlns:sketch="http://www.bohemiancoding.com/sketch/ns">
    <!-- Generator: Sketch 3.0.3 (7891) - http://www.bohemiancoding.com/sketch -->
    <title>icon 19 file tiff</title>
    <desc>Created with Sketch.</desc>
    <defs></defs>
    <g id="Page-1" stroke="none" stroke-width="1" fill="none" fill-rule="evenodd" sketch:type="MSPage">
        <g id="icon-19-file-tiff" sketch:type="MSArtboardGroup" fill="#929292">
            <path d="M6.99263394,10 C5.33984785,10 4,11.3422643 4,12.9987856 L4,20.0012144 C4,21.6573979 5.3389342,23 6.99263394,23 L28.0073661,23 C29.6601521,23 31,21.6577357 31,20.0012144 L31,12.9987856 C31,11.3426021 29.6610658,10 28.0073661,10 L6.99263394,10 L6.99263394,10 Z M9,14 L9,20 L10,20 L10,14 L12,14 L12,13 L7,13 L7,14 L9,14 L9,14 Z M14,14 L14,19 L13,19 L13,20 L16,20 L16,19 L15,19 L15,14 L16,14 L16,13 L13,13 L13,14 L14,14 L14,14 Z M18,16 L18,14 L22,14 L22,13 L17,13 L17,20 L18,20 L18,17 L21,17 L21,16 L18,16 L18,16 Z M24,16 L24,14 L28,14 L28,13 L23,13 L23,20 L24,20 L24,17 L27,17 L27,16 L24,16 L24,16 Z" id="file-tiff" sketch:type="MSShapeGroup"></path>
        </g>
    </g>
</svg>

<svg width="32" height="32" viewBox="0 0 32 32" xmlns="http://www.w3.org/2000/svg"><path d="M6.993 10A2.995 2.995 0 0 0 4 12.999V20A2.995 2.995 0 0 0 6.993 23h21.014A2.995 2.995 0 0 0 31 20.001V13A2.995 2.995 0 0 0 28.007 10H6.993zM9 14v6h1v-6h2v-1H7v1h2zm5 0v5h-1v1h3v-1h-1v-5h1v-1h-3v1h1zm4 2v-2h4v-1h-5v7h1v-3h3v-1h-3zm6 0v-2h4v-1h-5v7h1v-3h3v-1h-3z" fill="#929292" fill-rule="evenodd"/></svg>
